X:1
T:John Henry
M:4/4
L:1/8
K:D
 z4 z2 ef| f f3 af af| a f- f4 ef|a-fa-ff-fe-c| c6 ce| a2f-e ff ec|\
 ecA-F F2 EF|A-FA-FF-FE-E| F6 EF|A-FA-FF-FE-E| F6 z2|
